src/assets/images/icons/python.svg

<svg xmlns="http://www.w3.org/2000/svg" width="32" height="32" viewBox="0 0 32 32" fill="none"><g clip-path="url(#clip0_810_193)"><path d="M15.8118 0.000261574C14.5067 0.00632407 13.2604 0.117637 12.1638 0.311699C8.93321 0.882449 8.34665 2.07701 8.34665 4.28007V7.18964H15.9808V8.15945H8.34665H5.48159C3.2629 8.15945 1.32009 9.49301 0.712464 12.0299C0.011526 14.9378 -0.0195365 16.7524 0.712464 19.7888C1.25515 22.0488 2.55109 23.6592 4.76978 23.6592H7.39459V20.1713C7.39459 17.6514 9.57478 15.4288 12.1638 15.4288H19.7891C21.9117 15.4288 23.6062 13.6811 23.6062 11.5494V4.28007C23.6062 2.2112 21.8608 0.657012 19.7891 0.311699C18.4777 0.0933866 17.1169 -0.00580093 15.8118 0.000261574ZM11.6833 2.34039C12.4718 2.34039 13.1158 2.99489 13.1158 3.79957C13.1158 4.60145 12.4718 5.24989 11.6833 5.24989C10.8919 5.24989 10.2508 4.60145 10.2508 3.79957C10.2508 2.99482 10.8919 2.34039 11.6833 2.34039Z" fill="url(#paint0_linear_810_193)"></path><path d="M24.5585 8.15949V11.5495C24.5585 14.1777 22.3302 16.3898 19.7894 16.3898H12.164C10.0754 16.3898 8.34692 18.1774 8.34692 20.2692V27.5386C8.34692 29.6074 10.146 30.8244 12.164 31.4179C14.5806 32.1285 16.898 32.2569 19.7894 31.4179C21.7113 30.8615 23.6064 29.7416 23.6064 27.5386V24.629H15.9811V23.6591H23.6064H27.4236C29.6422 23.6591 30.4691 22.1116 31.2407 19.7887C32.0377 17.3973 32.0038 15.0976 31.2407 12.0299C30.6924 9.82111 29.6451 8.15936 27.4236 8.15936H24.5585V8.15949ZM20.2699 26.5687C21.0612 26.5687 21.7024 27.2172 21.7024 28.0191C21.7024 28.8238 21.0612 29.4783 20.2699 29.4783C19.4813 29.4783 18.8374 28.8238 18.8374 28.0191C18.8373 27.2172 19.4812 26.5687 20.2699 26.5687Z" fill="url(#paint1_linear_810_193)"></path></g><defs><linearGradient id="paint0_linear_810_193" x1="-0.573166" y1="0.910037" x2="17.0344" y2="15.9256" gradientUnits="userSpaceOnUse"><stop stop-color="#5A9FD4"></stop><stop offset="1" stop-color="#306998"></stop></linearGradient><linearGradient id="paint1_linear_810_193" x1="23.6596" y1="25.2595" x2="17.3453" y2="16.4046" gradientUnits="userSpaceOnUse"><stop stop-color="#FFD43B"></stop><stop offset="1" stop-color="#FFE873"></stop></linearGradient><clipPath id="clip0_810_193"><rect width="32" height="32" fill="white"></rect></clipPath></defs></svg>

<svg xmlns="http://www.w3.org/2000/svg" width="32" height="32" fill="none" viewBox="0 0 32 32">
  <g clipPath="url(#clip0_810_193)">
    <path fill="url(#paint0_linear_810_193)" d="M15.812 0a21.796 21.796 0 00-3.648.312c-3.23.57-3.817 1.765-3.817 3.968v2.91h7.634v.97H5.482c-2.22 0-4.162 1.333-4.77 3.87-.7 2.908-.732 4.722 0 7.759.543 2.26 1.84 3.87 4.058 3.87h2.625v-3.488c0-2.52 2.18-4.742 4.769-4.742h7.625c2.123 0 3.817-1.748 3.817-3.88V4.28c0-2.069-1.745-3.623-3.817-3.968A23.81 23.81 0 0015.812 0zm-4.129 2.34c.789 0 1.433.655 1.433 1.46 0 .801-.644 1.45-1.433 1.45a1.44 1.44 0 01-1.432-1.45c0-.805.64-1.46 1.432-1.46z"/>
    <path fill="url(#paint1_linear_810_193)" d="M24.558 8.16v3.39c0 2.628-2.228 4.84-4.769 4.84h-7.625c-2.089 0-3.817 1.787-3.817 3.88v7.269c0 2.068 1.799 3.285 3.817 3.879 2.417.71 4.734.839 7.625 0 1.922-.556 3.817-1.676 3.817-3.88V24.63h-7.625v-.97h11.443c2.218 0 3.045-1.547 3.817-3.87.797-2.392.763-4.691 0-7.76-.549-2.208-1.596-3.87-3.817-3.87h-2.866zM20.27 26.568a1.44 1.44 0 011.432 1.45c0 .805-.64 1.46-1.432 1.46-.789 0-1.433-.655-1.433-1.46 0-.802.644-1.45 1.433-1.45z"/>
  </g>
  <defs>
    <linearGradient id="paint0_linear_810_193" x1="-0.573" x2="17.034" y1="0.91" y2="15.926" gradientUnits="userSpaceOnUse">
      <stop stopColor="#5A9FD4"/>
      <stop offset="1" stopColor="#306998"/>
    </linearGradient>
    <linearGradient id="paint1_linear_810_193" x1="23.66" x2="17.345" y1="25.259" y2="16.405" gradientUnits="userSpaceOnUse">
      <stop stopColor="#FFD43B"/>
      <stop offset="1" stopColor="#FFE873"/>
    </linearGradient>
    <clipPath id="clip0_810_193">
      <path fill="#fff" d="M0 0H32V32H0z"/>
    </clipPath>
  </defs>
</svg>
